weblate_web/static/img/icon-export.svg

<?xml version="1.0" encoding="UTF-8" standalone="no"?>
<svg
   xmlns:dc="http://purl.org/dc/elements/1.1/"
   xmlns:cc="http://creativecommons.org/ns#"
   xmlns:rdf="http://www.w3.org/1999/02/22-rdf-syntax-ns#"
   xmlns:svg="http://www.w3.org/2000/svg"
   xmlns="http://www.w3.org/2000/svg"
   xmlns:sodipodi="http://sodipodi.sourceforge.net/DTD/sodipodi-0.dtd"
   xmlns:inkscape="http://www.inkscape.org/namespaces/inkscape"
   version="1.1"
   width="41"
   height="41"
   viewBox="-1 -1 43 43"
   id="svg4"
   sodipodi:docname="icon-export.svg"
   inkscape:version="0.92.4 (5da689c313, 2019-01-14)">
  <metadata
     id="metadata10">
    <rdf:RDF>
      <cc:Work
         rdf:about="">
        <dc:format>image/svg+xml</dc:format>
        <dc:type
           rdf:resource="http://purl.org/dc/dcmitype/StillImage" />
        <dc:title></dc:title>
      </cc:Work>
    </rdf:RDF>
  </metadata>
  <defs
     id="defs8" />
  <sodipodi:namedview
     pagecolor="#ffffff"
     bordercolor="#666666"
     borderopacity="1"
     objecttolerance="10"
     gridtolerance="10"
     guidetolerance="10"
     inkscape:pageopacity="0"
     inkscape:pageshadow="2"
     inkscape:window-width="1920"
     inkscape:window-height="1027"
     id="namedview6"
     showgrid="false"
     fit-margin-top="0"
     fit-margin-left="0"
     fit-margin-right="0"
     fit-margin-bottom="0"
     inkscape:zoom="9.8333333"
     inkscape:cx="4.9661017"
     inkscape:cy="11"
     inkscape:window-x="-8"
     inkscape:window-y="-8"
     inkscape:window-maximized="1"
     inkscape:current-layer="svg4" />
  <path
     d="M 25.8095,6.15 20.5,11.4595 15.1905,6.15 12.3,9.0405 17.6095,14.35 12.3,19.6595 15.1905,22.55 20.5,17.2405 25.8095,22.55 28.7,19.6595 23.3905,14.35 28.7,9.0405 25.8095,6.15 M 30.75,0 a 4.1,4.1 0 0 1 4.1,4.1 v 20.5 a 4.1,4.1 0 0 1 -4.1,4.1 h -8.2 v 4.1 h 2.05 a 2.05,2.05 0 0 1 2.05,2.05 H 41 v 4.1 H 26.65 A 2.05,2.05 0 0 1 24.6,41 H 16.4 A 2.05,2.05 0 0 1 14.35,38.95 H 0 v -4.1 H 14.35 A 2.05,2.05 0 0 1 16.4,32.8 h 2.05 v -4.1 h -8.2 c -2.2755,0 -4.1,-1.845 -4.1,-4.1 V 4.1 A 4.1,4.1 0 0 1 10.25,0 Z"
     id="path2"
     inkscape:connector-curvature="0"
     style="stroke-width:1;fill:none;stroke:#1fa385;stroke-opacity:1" />
</svg>

<svg viewBox="-1 -1 43 43"><path fill="none" stroke="#1fa385" d="M25.81 6.15l-5.31 5.31-5.31-5.31-2.89 2.89 5.31 5.31-5.31 5.31 2.89 2.89 5.31-5.31 5.31 5.31 2.89-2.89-5.31-5.31 5.31-5.31-2.89-2.89M30.75 0a4.1 4.1 0 014.1 4.1v20.5a4.1 4.1 0 01-4.1 4.1h-8.2v4.1h2.05a2.05 2.05 0 012.05 2.05H41v4.1H26.65A2.05 2.05 0 0124.6 41h-8.2a2.05 2.05 0 01-2.05-2.05H0v-4.1h14.35a2.05 2.05 0 012.05-2.05h2.05v-4.1h-8.2a4.099 4.099 0 01-4.1-4.1V4.1a4.1 4.1 0 014.1-4.1z"/></svg>
